!!!COM: Civita, Davit
!!!CDT:
!!!PTL: Premitie armoniche a tre voci
!!!PPP: Venice
!!!PPR: Giacomo Vincenzi
!!!PDT: 1616
!!!PUB-format:
!!!RISM: Unknown
!!!rime: 560
!!!OTL: Tarquinia, se rimiri
!!!AGN: Madrigal
!!!SCT: Trm0560q
!!!SCA: Trm0560q
!!!original-voices: 3+bc
!!!extant-voices: 2+bc
!!!complete: N
!!!final: F
**kern	**kern	**text	**kern	**text
*part3	*part2	*part2	*part1	*part1
*staff3	*staff2	*staff2	*staff1	*staff1
*I"B.C.	*I"Basso	*	*I"Alto	*
*I'B.C.	*I'B	*	*I'A	*
*oclefF4	*oclefF4	*	*oclefC1	*
*clefF4	*clefF4	*	*clefG2	*
*k[b-]	*k[b-]	*	*k[b-]	*
*F:	*F:	*	*F:	*
*omet(C)	*omet(C)	*	*omet(C)	*
*M2/2	*M2/2	*	*M2/2	*
=1	=1	=1	=1	=1
2F	2F	Men-	2a	Men-
4F	4F	-tre,	4a	-tre,
4F	4F	mia	4a	mia
=2	=2	=2	=2	=2
4.F	4.F	stel-	4.a	stel-
8G	8G	-la,	8g	-la,
2D	2D	mi-	2f#X	mi-
=3	=3	=3	=3	=3
1D	1D	-ri	1f#X	-ri
=4	=4	=4	=4	=4
2D	4r	.	4r	.
.	4D	I	4fnXi	I
4GG	4GG	bei	4g	bei
4G	4G	ce-	4g	ce-
=5	=5	=5	=5	=5
2F	2F	-le-	4a	-le-
.	.	.	4a	-sti
2BB-y	2BB-y	-sti	8b-yL	gi-
.	.	.	8a	.
.	.	.	8g	.
.	.	.	8fJ	.
=6	=6	=6	=6	=6
1C	1C	gi-	4e	.
.	.	.	2f	.
.	.	.	4e	.
=7	=7	=7	=7	=7
4FF	4FF	-ri,	4f	-ri,
4F	4F	Il	4a	Il
2F	2F	Ciel	2a	Ciel
=8	=8	=8	=8	=8
4F	4r	.	4r	.
4.F	4.F	es-	4.a	es-
8F	8F	-ser	8a	-ser
4C	4C	vor-	4e	vor-
=9	=9	=9	=9	=9
2GG	2GG	-re-	2g	-re-
2D	2D	-i;	2f#X	-i;
=10	=10	=10	=10	=10
2D	4r	.	1r	.
.	4D	Per-	.	.
4F#X	4F#X	-ché	.	.
4F#i	4F#i	nel-	.	.
=11	=11	=11	=11	=11
2G	2G	-l’oc-	1r	.
2A	2A	-chi	.	.
=12	=12	=12	=12	=12
2B-y	2B-y	miei,	4r	.
.	.	.	4dd	Per-
2F#X	2F#X	Per-	4dd	-ché
.	.	.	4a	nel-
=13	=13	=13	=13	=13
2G	2G	-ché	4b-y	-l’oc-
.	.	.	4b-y	-chi
2A	2A	nel-	8aL	mie-
.	.	.	8g	.
.	.	.	8f	.
.	.	.	8eJ	.
=14	=14	=14	=14	=14
4B-y	4B-y	-l’oc-	8dL	.
.	.	.	16e	.
.	.	.	16fJ	.
4G	4G	-chi	2g	.
2D	2D	mie-	.	.
.	.	.	4f#X	.
=15	=15	=15	=15	=15
1GG	1GG	-i	1g	-i
=16	=16	=16	=16	=16
2.D	2.D	Fis-	2.f	Fis-
4D	4D	-so	4f#X	-so
=17	=17	=17	=17	=17
2D	2D	tu	2f#X	tu
4GG	4GG	ri-	4g	ri-
4AA	4AA	-vol-	4e	-vol-
=18	=18	=18	=18	=18
2D	2D	-ges-	2f#X	-ges-
2D	2D	-si	2f#X	-si
=19	=19	=19	=19	=19
2.F	2.F	Le	2r	.
.	.	.	4r	.
4E	4E	tue	[4g	Le
=20	=20	=20	=20	=20
2.A	2.A	dol-	4g]	.
.	.	.	4fnXi	tue
.	.	.	[2f	dol-
8GL	8G	-ci	.	.
8FJ	8F	fa-	.	.
=21	=21	=21	=21	=21
1G	1G	-vil-	4f]	.
.	.	.	8e	-ci
.	.	.	8e	fa-
.	.	.	2d	-vil-
=22	=22	=22	=22	=22
1C	1C	-le,	1c	-le,
=23	=23	=23	=23	=23
2G	1r	.	1r	.
2F	.	.	.	.
=24	=24	=24	=24	=24
2G	1r	.	4dd	Io
.	.	.	8cc	vag-
.	.	.	8b-y	-gheg-
2F	.	.	4cc	-giar
.	.	.	4a	po-
=25	=25	=25	=25	=25
4G	4G	Io	2b-y	-tes-
8FL	8F	vag-	.	.
8EJ	8E	-gheg-	.	.
4F	4F	-giar	4a	-si,
4D	4D	po-	8f#X	vag-
.	.	.	8f#X	-gheg-
=26	=26	=26	=26	=26
2E-X	2E-X	-tes-	8g	-giar
.	.	.	8g	po-
.	.	.	2g	-tes-
2D	2D	-si	.	.
.	.	.	4f#X	-si
=27	=27	=27	=27	=27
2.F	2.F	Mil-	2.a	Mil-
8DL	8D	-le	8f	-le
8DJ	8D	bel-	8f	bel-
=28	=28	=28	=28	=28
4.BB-y	4.BB-y	-lez-	4.d	-lez-
8BB-y	8BB-y	-ze	8d	-ze
2AA	2AA	tue	2c#X	tue
=29	=29	=29	=29	=29
2AA	4r	.	4r	.
.	4AA	con	4a	con
4BB-y	4BB-y	lu-	4g	lu-
4GG	4GG	-ci	4g	-ci
=30	=30	=30	=30	=30
2C	2C	mil-	2e	mil-
2C	2C	-le,	2e	-le,
=31	=31	=31	=31	=31
2F	2F	con	1a	con
4.AA	4.AA	lu-	.	.
8BB-y	8BB-y	-ci	.	.
=32	=32	=32	=32	=32
1C	1C	mil-	8e	lu-
.	.	.	8e	-ci
.	.	.	2f	mil-
.	.	.	4e	.
=33	=33	=33	=33	=33
1FFl	1FFl	-le.	1fl	-le.
==	==	==	==	==
*-	*-	*-	*-	*-
!!!system-decoration: [*]
!!!RDF**kern: i = editorial accidental
!!!RDF**kern: l = terminal long
!!!ENC: Emiliano Ricciardi
!!!END: 2019/01/30
!!!EED: Schleuse, Paul
!!!EEV: 2019/01/30
!!!YEC: Copyright 2018 Emiliano Ricciardi, All Rights Reserved
!!!ONB: Translated from MusicXML on 2019/01/30 and edited by Craig Stuart Sapp
!!@@BEGIN:	VERSEDATA
!!@SOLERTI:	560
!!@CATALOGNUM:	Trm0560
!!@LAST_MODIFIED: 2020/07/12
!!@TITLE:		Tarquinia, se rimiri
!!@GENRE:		madrigale
!!@MANUSRC:	A<sub>3</sub>, C, E<sub>1</sub>, E<sub>7</sub>, F<sub>2</sub>, V<sub>8</sub>, V<sub>9</sub>, V<sub>13/E1</sub>
!!@PRINTSRC:	8, 9, 11, 12, 13, 15, 20, 24, 33, 67, 141, 145, 166, 169
!!@@BEGIN:	VERSES
!!@ABOUTIT:	A la signora Tarquinia Molza la quale studiando la sfera andava la sera a contemplar le stelle.
!!@ABOUTEN:	To lady Tarquinia Molza who, studying the globe, went to contemplate the stars at night.
!!@EDITOR:	Solerti, Angelo
!!@EDITION_TITLE: Le Rime di Torquato Tasso
!!@EDITION_LOC:	Bologna
!!@EDITION_PUB:	Romagnoli-Dall’Acqua
!!@EDITION_DATE:  1898-1902
!!@EDITION_VOL:	3
!!@EDITION_PAGE:  79
!!@TRANSLATOR:	Emiliano Ricciardi and Amyrose McCue Gill
!!@VERSE:
!!	Tarquinia, se rimiri
!!	I bei celesti giri,
!!	Il cielo esser vorrei;
!!	Perché ne gli occhi miei
!!	Fisso tu rivolgessi
!!	Le tue dolci faville,
!!	Io vagheggiar potessi
!!	Mille bellezze tue con luci mille.
!!@TVERSE:
!!	Tarquinia, if I look upon
!!	The beautiful blue spheres,
!!	The sky I wish to be;
!!	So that to my eyes
!!	Raptly you may turn
!!	Your sweet sparks,
!!	And I may long for
!!	Your thousand beauties with a thousand 	lights.
!!@@END:		VERSES
!!@OTHER_CRIT_ED:   Torquato Tasso, <i>Rime d’amore (secondo il codice
!!		Chigiano L VIII 302)</i>, eds. Franco Gavazzeni and
!!		Vercingetorige Martignone, vol. 4 of <i>Edizione
!!		Nazionale delle opere di Torquato Tasso</i>
!!		(Alessandria: Edizioni Dell’Orso, 2004), 171.
!!@ATTRIBUTION_ABOUT:	Secure
!!		<br>
!!		Among other authoritative sources (see Literary
!!		Sources), this poem appears in the autograph Chigiano
!!		L.VIII.302 (Biblioteca Vaticana, Rome), compiled
!!		around 1584&ndash;85.
!!@DATING:	In or before 1571
!!		<br>
!!		The earliest datable appearance of this poem is in a musical setting by Ferrarese composer Luzzasco Luzzaschi published in 1571 (see Musical Settings). In this setting, the text is subtantially different than in later musical and literary sources (see Literary Variants).
!!@DEDICATEE:	Molza, Tarquinia Molza
!!@DEDICATEE_INFO:	(1542-1617)
!!@COMMENTARY:
!!@@END:		VERSEDATA
!!@@BEGIN:	SETTING
!!@CATALOGNUM:	Trm0560q
!!@RIMETITLE:	Tarquinia, se rimiri
!!@SETTINGTITLE:	Mentre, mia stella, miri
!!@SOLERTI:	560
!!@COMPOSER:	Civita, Davit
!!@PRINCEPSTITLE:	Premitie armoniche a tre voci
!!@PRINCEPSLOC:	Venetia
!!@NORMLOC:	Venice
!!@NORMPUB:	Giacomo Vincenzi
!!@NORMPUBSHORT:	G. Vincenzi
!!@PRINCEPSPUB:	Vincenti
!!@PRINCEPSYEAR:	1616
!!@PRINCEPSRISM:	Unknown
!!@REPRINTS:	
!!@OVOICES:	3+bc
!!@EXTANTVOICES:	2+bc
!!@PARTBOOKS:	
!!@EXTPARTBOOKS:	
!!@OCLEFS:	C1,F4,F4
!!@OMENSURATION:	C
!!@OKEYSIG:	b-
!!@FINAL:	F
!!@TIMPEDITOR:	Schleuse, Paul
!!@NOTE:		
!!@@END:		SETTING
